X: 128
T:Sixmilebridge
T:Carty's Old Wife
M:C|
L:1/8
R:Reel
K:D
AG[|:FDFA d2fd|d2fd ecAG|FDFA d2fd|ecAF G2AG|!
FDFA d2fd|d2fd ecAG|FDFA d2fd|1ecAF G2AG:|2ecAF G2de|!
|:f2fa g2fg|abag fdde|fefa g2fg|abaf g2fg|!
abaf gfeg|fdec dcAG|FDFA d2fd|1ecAF G2de:|2ecAF G2AG|]!
